packages/assets/files/fram/mono/transportation/Ferry.svg

<svg width="40" height="40" viewBox="0 0 40 40" fill="none"
  xmlns="http://www.w3.org/2000/svg">
  <path d="M23.7252 7.53196C20.8086 8.69863 21.0169 8.46946 21.0169 10.7611V12.7403H14.1836C9.01691 12.7403 7.26691 12.8028 7.03775 12.9903C6.85025 13.157 6.32941 14.8861 5.82941 17.0111C4.43358 22.907 4.66275 22.3236 3.76691 22.3236C3.35025 22.3236 2.89191 22.407 2.74608 22.4903C2.51691 22.6361 0.891912 28.1153 1.03775 28.2403C1.07941 28.282 1.91274 28.6778 2.89191 29.1153C4.41274 29.8028 4.87108 29.9278 6.12108 29.9278C7.37108 29.9278 7.82941 29.8236 9.32941 29.1153C12.6002 27.6153 15.5169 27.6153 18.6836 29.1361C20.0377 29.782 20.5169 29.8861 21.7461 29.907C23.0377 29.9278 23.4336 29.8236 24.8919 29.1361C27.9544 27.7195 31.1627 27.6153 33.9127 28.907C34.5169 29.1778 35.1211 29.407 35.2669 29.407C35.6211 29.407 39.9752 23.2611 39.9752 22.7611C39.9752 22.3445 39.8502 22.3236 36.8294 22.282L33.6627 22.2195L32.2877 16.282C31.5377 13.0111 30.8294 10.2195 30.7461 10.0736C30.6419 9.90696 30.0169 9.82363 28.9336 9.82363H27.2877L27.0586 8.6153C26.7461 7.13613 26.5169 6.69863 26.0586 6.71946C25.8711 6.7403 24.8086 7.09446 23.7252 7.53196ZM14.3502 16.6986V18.157H10.8919C7.70441 18.157 7.45441 18.1361 7.53775 17.782C7.60025 17.5945 7.76691 16.9278 7.89191 16.3236L8.14191 15.2403H11.2461H14.3502V16.6986ZM21.6419 16.6986V18.157H18.3086H14.9752V16.6986V15.2403H18.3086H21.6419V16.6986ZM29.5377 16.032C29.6627 16.4695 29.8294 17.1153 29.8919 17.4903L30.0377 18.157H26.2461H22.4752V16.6986V15.2403H25.9127H29.3294L29.5377 16.032Z" fill="black"/>
  <path d="M11.7461 29.5944C11.4127 29.6778 10.3294 30.1153 9.37108 30.5319C7.87108 31.2194 7.43358 31.3236 6.12108 31.3236C4.80858 31.3236 4.37108 31.2194 2.70441 30.4694C1.66274 29.9903 0.725244 29.6153 0.641911 29.6153C0.496077 29.6153 -0.108089 31.5111 0.0169106 31.5736C0.0585773 31.5944 0.871077 31.9903 1.85024 32.4278C3.60024 33.2611 3.64191 33.2611 6.12108 33.2611C8.60024 33.2611 8.64191 33.2611 10.3711 32.4278C12.0377 31.6361 12.2669 31.5944 14.0169 31.5944C15.8086 31.5944 15.9961 31.6361 17.5794 32.4278C19.2461 33.2611 19.2461 33.2611 21.7461 33.2611C24.2252 33.2611 24.2669 33.2611 26.0169 32.4278C28.3086 31.3653 30.1627 31.1986 32.1002 31.9069L33.3711 32.3653L33.7669 31.8861C34.5794 30.8444 34.6002 30.6986 33.9961 30.3653C32.6419 29.6778 30.9752 29.3653 29.1627 29.4486C27.6419 29.5319 27.1002 29.6569 25.6419 30.3236C22.6627 31.6778 21.0377 31.6778 18.0586 30.3236C16.4961 29.6153 16.1419 29.5319 14.3502 29.4694C13.2669 29.4486 12.1002 29.4903 11.7461 29.5944Z" fill="black"/>
</svg>

<svg xmlns="http://www.w3.org/2000/svg" width="40" height="40" fill="none"><path fill="#000" d="M23.725 7.532c-2.916 1.167-2.708.937-2.708 3.23v1.978h-6.833c-5.167 0-6.917.063-7.146.25-.188.167-.709 1.896-1.209 4.021-1.395 5.896-1.166 5.313-2.062 5.313-.417 0-.875.083-1.02.166-.23.146-1.855 5.625-1.71 5.75.042.042.876.438 1.855.875 1.52.688 1.98.813 3.23.813s1.707-.104 3.207-.813c3.271-1.5 6.188-1.5 9.355.021 1.354.646 1.833.75 3.062.771 1.292.02 1.688-.083 3.146-.77 3.062-1.418 6.27-1.522 9.02-.23.605.27 1.21.5 1.355.5.354 0 4.708-6.146 4.708-6.646 0-.416-.125-.437-3.146-.479l-3.166-.063-1.375-5.937c-.75-3.27-1.459-6.063-1.542-6.208-.104-.167-.73-.25-1.812-.25h-1.646l-.23-1.209c-.312-1.479-.541-1.916-1-1.896-.187.021-1.25.375-2.333.813Zm-9.375 9.167v1.458h-3.458c-3.188 0-3.438-.02-3.354-.375.062-.188.229-.854.354-1.458l.25-1.084h6.208V16.7Zm7.292 0v1.458h-6.667V15.24h6.667V16.7Zm7.896-.667c.125.438.291 1.083.354 1.458l.146.667H22.476V15.24h6.853l.209.792Z"/><path fill="#000" d="M11.746 29.594c-.333.084-1.417.521-2.375.938-1.5.687-1.937.792-3.25.792-1.312 0-1.75-.105-3.417-.855-1.041-.479-1.979-.854-2.062-.854-.146 0-.75 1.896-.625 1.959a64 64 0 0 0 1.833.854c1.75.833 1.792.833 4.271.833 2.48 0 2.52 0 4.25-.833 1.667-.792 1.896-.834 3.646-.834 1.792 0 1.98.042 3.562.834 1.667.833 1.667.833 4.167.833 2.48 0 2.52 0 4.27-.833 2.293-1.063 4.147-1.23 6.084-.521l1.271.458.396-.479c.812-1.042.833-1.187.23-1.52-1.355-.688-3.022-1-4.834-.917-1.521.083-2.063.208-3.521.875-2.98 1.354-4.604 1.354-7.583 0-1.563-.709-1.917-.792-3.709-.855-1.083-.02-2.25.021-2.604.125Z"/></svg>
